pix_core/t/unblock.svg

<svg preserveAspectRatio="xMinYMid meet" viewBox="0 0 448 512" xmlns="http://www.w3.org/2000/svg"><path d="m224 64c-44.2 0-80 35.8-80 80v48h240c35.3 0 64 28.7 64 64v192c0 35.3-28.7 64-64 64h-320c-35.3 0-64-28.7-64-64v-192c0-35.3 28.7-64 64-64h16v-48c0-79.5 64.5-144 144-144 57.5 0 107 33.7 130.1 82.3 7.6 16 .8 35.1-15.2 42.6s-35.1.8-42.6-15.2c-12.9-27.1-40.4-45.7-72.3-45.7zm32 320c17.7 0 32-14.3 32-32s-14.3-32-32-32h-64c-17.7 0-32 14.3-32 32s14.3 32 32 32z" fill="#fff"/></svg>

<svg xmlns="http://www.w3.org/2000/svg" viewBox="0 0 448 512" preserveAspectRatio="xMinYMid meet"><!--!Font Awesome Free 6.5.2 by @fontawesome - https://fontawesome.com License - https://fontawesome.com/license/free Copyright 2024 Fonticons, Inc.--><path fill="#fff" d="M224 64c-44.2 0-80 35.8-80 80v48H384c35.3 0 64 28.7 64 64V448c0 35.3-28.7 64-64 64H64c-35.3 0-64-28.7-64-64V256c0-35.3 28.7-64 64-64H80V144C80 64.5 144.5 0 224 0c57.5 0 107 33.7 130.1 82.3c7.6 16 .8 35.1-15.2 42.6s-35.1 .8-42.6-15.2C283.4 82.6 255.9 64 224 64zm32 320c17.7 0 32-14.3 32-32s-14.3-32-32-32H192c-17.7 0-32 14.3-32 32s14.3 32 32 32h64z"/></svg>
